src/images/icons/phone.svg

<svg width="384" height="384" viewBox="0 0 384 384"  xmlns="http://www.w3.org/2000/svg">
<path d="M366.793 263.086L274.528 221.738C270.347 219.947 265.786 219.227 261.257 219.643C256.728 220.059 252.374 221.598 248.59 224.121C248.207 224.369 247.841 224.643 247.496 224.941L199.274 265.957C198.773 266.23 198.216 266.382 197.647 266.403C197.077 266.423 196.511 266.311 195.992 266.074C164.996 251.113 132.887 219.199 117.867 188.633C117.617 188.122 117.487 187.561 117.487 186.992C117.487 186.424 117.617 185.862 117.867 185.352L159.02 136.523C159.316 136.163 159.589 135.784 159.84 135.391C162.328 131.592 163.831 127.233 164.213 122.708C164.595 118.183 163.844 113.635 162.028 109.473L120.973 17.3633C118.641 11.926 114.609 7.39147 109.482 4.44035C104.354 1.48923 98.4081 0.280691 92.5354 0.996113C67.0124 4.35151 43.5845 16.8855 26.6296 36.2559C9.67466 55.6263 0.352975 80.5075 0.406479 106.25C0.406479 259.18 124.821 383.594 277.75 383.594C303.492 383.643 328.371 374.32 347.74 357.366C367.11 340.412 379.645 316.986 383.004 291.465C383.718 285.62 382.526 279.7 379.605 274.587C376.684 269.474 372.191 265.44 366.793 263.086ZM277.75 360.156C137.75 360.156 23.844 246.25 23.844 106.25C23.7787 86.2096 31.012 66.8309 44.1925 51.7346C57.373 36.6383 75.599 26.8572 95.4651 24.2188H95.9143C96.7014 24.2335 97.4656 24.4856 98.1069 24.9422C98.7482 25.3988 99.2366 26.0384 99.508 26.7774L140.719 118.789C140.954 119.301 141.076 119.857 141.076 120.42C141.076 120.983 140.954 121.539 140.719 122.051L99.4885 170.996C99.1824 171.347 98.9017 171.719 98.6487 172.109C96.0687 176.048 94.5494 180.586 94.2381 185.284C93.9267 189.982 94.8337 194.681 96.8713 198.926C114.196 234.395 149.938 269.863 185.797 287.188C190.067 289.214 194.788 290.099 199.502 289.757C204.215 289.414 208.76 287.856 212.692 285.234C213.063 284.98 213.434 284.707 213.785 284.414L261.988 243.398C262.465 243.143 262.99 242.993 263.53 242.959C264.069 242.925 264.609 243.009 265.114 243.203L357.399 284.551C358.152 284.872 358.786 285.422 359.21 286.123C359.634 286.824 359.827 287.64 359.762 288.457C357.137 308.332 347.365 326.572 332.272 339.767C317.179 352.962 297.798 360.21 277.75 360.156Z" />
</svg>

<svg xmlns="http://www.w3.org/2000/svg" viewBox="0 0 384 384"><path d="m366.793 263.086-92.265-41.348a27.35 27.35 0 0 0-25.938 2.383 9.933 9.933 0 0 0-1.094.82l-48.222 41.016a3.671 3.671 0 0 1-3.282.117c-30.996-14.961-63.105-46.875-78.125-77.441a3.733 3.733 0 0 1 0-3.281l41.153-48.829c.296-.36.569-.739.82-1.132a27.35 27.35 0 0 0 2.188-25.918l-41.055-92.11A27.35 27.35 0 0 0 92.535.996 105.937 105.937 0 0 0 .406 106.25c0 152.93 124.415 277.344 277.344 277.344a105.958 105.958 0 0 0 105.254-92.129 27.342 27.342 0 0 0-16.211-28.379Zm-89.043 97.07c-140 0-253.906-113.906-253.906-253.906a82.48 82.48 0 0 1 71.621-82.031h.45a3.906 3.906 0 0 1 3.593 2.558l41.211 92.012a3.91 3.91 0 0 1 0 3.262l-41.23 48.945a9.849 9.849 0 0 0-.84 1.113 27.345 27.345 0 0 0-1.778 26.817c17.325 35.469 53.067 70.937 88.926 88.262a27.352 27.352 0 0 0 26.895-1.954c.371-.254.742-.527 1.093-.82l48.203-41.016a3.757 3.757 0 0 1 3.126-.195l92.285 41.348a3.908 3.908 0 0 1 2.363 3.906 82.503 82.503 0 0 1-82.012 71.699Z"/></svg>
